X:1
T:Spožāk zvaigznes mirdzēt sāka
T:Harm. M. Celminskis
T:Spožāk zvaigznes mirdzēt sāka
C:Harm. M. Celminskis
%%score 1 { ( 2 3 ) | ( 4 5 ) }
L:1/8
Q:1/4=70
M:3/4
K:F
V:1 treble nm="SOLO"
V:2 treble nm="Organo"
V:3 treble 
V:4 bass 
V:5 bass 
V:1
!mf!"^Maestoso" Ff (f2 e)d | dd (d2 c)B | Ac fc BA | A2 G4 | Ff (f2 e)d | dd (d2 c)B | %6
w: 1. žāk zvaig- * znes|mir- dzēt sā- * ka,|Die- va Dēls pie mums kad|nā- ca.|1. bess dzies- * mas|ne- no- ri- * ma|
w: 2. ģe- ļi _ pie|ga- niem gā- * ja,|prie- ka vēs- ti slu- di-|nā- ja.|2. uz Bet- * lē-|mi tie steig- * tu,|
 Ac fc B!>(!A | A2!>)! G4 || z6 | z6 | z6 | z6 | z6 | z6 | z6 |"^rit." z6 :| z6 | z6 | z6 | z6 | %20
w: nak- tī, ku- rā Jē- zus|dzi- ma.|||||||||||||
w: pie- dzi- mu- šo Jē- zu|sveik- tu.|||||||||||||
 z6 | z6 | z6 | z6 || z6 | z6 | z6 | z6 | z6 | z6 | z6 |"^rit." z6 |] %32
w: ||||||||||||
w: ||||||||||||
V:2
 Ff"^Instrument change"fced |"^Instrument change" d2 d2 cB"^Instrument change" | %2
w: ||
"^Instrument change" A"^Instrument change"cfcBA |"^Instrument change" A2"^Instrument change" G4 | %4
w: ||
"^Instrument change" F2 Fced"^Instrument change" | %5
w: |
"^Instrument change" (d2 d2) c_B"^Instrument change" | %6
w: |
"^Instrument change" A"^Instrument change"cfcBA |"^Instrument change" A2"^Instrument change" G4 || %8
w: ||
"^Refrēns"!mf!"^SA" B3!<(! G A!<)!B |"^Instrument change" c"^Instrument change"c A2 c2 | %10
w: 1.\-2. ci- nā- sim,|go- di- nā- sim,|
"^Instrument change" B3"^Instrument change" G EC | %11
w: Die- va Bēr- nu|
"^Instrument change" F"^Instrument change"F A2 c2 | %12
w: aug- sti teik- sim,|
"^Instrument change" B3"^Instrument change" G AB | %13
w: 1.\-2. Viņš pa- sau-|
"^Instrument change" c"^Instrument change"c A2 c2 | %14
w: lē ir nā- cis,|
"^Instrument change" B3"^Instrument change" G AB | %15
w: pes- tī- ša- nas|
"^Instrument change" c"^Instrument change"E (GF) !fermata!F2 :| %16
w: gai- tas sā- * cis.|
!f!"^Instrument change" F"^Instrument change"f"^-" (f2 e)d | %17
w: 3. ni, Die- * vu|
"^Instrument change" d"^Instrument change"d (d2 c)B | %18
w: sla- vē- da- * mi,|
"^Instrument change" A"^Instrument change"c fc BA |"^Instrument change" A2"^Instrument change" G4 | %20
w: sa- vās sir- dīs līk- smo-|da- mi,|
"^Instrument change" F"^Instrument change"f"^-" (f2 e)d | %21
w: 3. dzās pie- * lūgt|
"^Instrument change" d"^Instrument change"d (d2 c)B | %22
w: Die- va Dē- * lu,|
"^Instrument change" A"^Instrument change"c fc BA | %23
w: vi- su mū- su Pes- tī-|
"^Instrument change" A2"^Instrument change" G4 || %24
w: tā- ju.|
!mf!"^Refrēns" B3"^Instrument change"!<(! G A!<)!B | %25
w: 3. ci- nā- sim,|
"^Instrument change" c"^Instrument change"c A2 c2 | %26
w: go- di- nā- sim,|
"^Instrument change" B3"^Instrument change" G EC | %27
w: Die- va Bēr- nu|
"^Instrument change" F"^Instrument change"F A2 c2 | %28
w: aug- sti teik- sim,|
"^Instrument change" B3"^Instrument change" G AB | %29
w: 3. Viņš pa- sau-|
"^Instrument change" c"^Instrument change"c A2 c2 | %30
w: lē ir nā- cis,|
"^Instrument change" B3"^Instrument change" G AB | %31
w: pes- tī- ša- nas|
"^Instrument change" c"^Instrument change"E (GF) !fermata!F2 |] %32
w: dar- bu sā- * cis.|
V:3
 F6 | [FB]2 [EB]2 [EA][CG] | FG F4 | F2 E4 | F2 F2 =B2 | (_B2 B2) AG | FEFFGF | F2 E4 || E3 E FF | %9
 FE F2 F2 | F3 E EC | CC F2 F2 | F3 E FG | AG ^F2 F2 | G3 E =FF | FC E2 F2 :| FF (FG A)B | %17
 BB (B2 A)G | FE FF FF | F2 E4 | FF (FG A)B | BB (B2 A)G | FG FF GF | F2 E4 || E3 E FF | FE F2 F2 | %26
 F3 E EC | CC F2 F2 | F3 E FG | AG ^F2 F2 | G3 E =FF | FC E2 F2 |] %32
V:4
 A,4 A,B, | G,,D,G,C,D,E, | C2 A,2 G,A, | =B,2 C4 | A,_B, C2 F2- | FD E4 | CB,CEDC | =B,2 C4 || %8
"^TB" G,3 D CD | CB, C2 C2 | D3 D B,B, | A,A, C2 A,2 | B,3 C CC | CC D2 D2 | D3 C DD | %15
 CB, B,2 A,2 :| A,B, CD EF | FF E3 E | CB, CE DC | =B,2 C4 | A,B, CD EF | FF E3 E | CC A,A, DC | %23
 =B,2 C4 || G,3 D CD | CB, C2 C2 | D3 D B,B, | A,A, C2 A,2 | B,3 C CC | CC D2 D2 | D3 C DD | %31
 CB, B,2 A,2 |] %32
V:5
 F,2 D,2 C,B,, | x6 | F,E, D,2 _D,C, | [G,,D,G,]2 C,4 | F,G, A,2 _A,2 | G,2 C,G, C2 | F,G,A,A,B,C | %7
 [G,,G,]2 C,4 || C,3 B, A,G, | A,G, F,2 A,2 | G,3 B, G,C, | F,F, _E,2 E,2 | D,3 C, D,=E, | %13
 F,E, D,2 D,2 | G,3 B, A,G, | A,G, C,2 !fermata!F,2 :| F,G, A,B, CD | G,G, C3 C | F,G, A,A, B,C | %19
 G,2 C,4 | F,G, A,B, CD | G,G, C3 C | F,E, D,D, E,F, | G,2 C,4 || C,3 B, A,G, | A,G, F,2 A,2 | %26
 G,3 B, G,C, | F,F, _E,2 E,2 | D,3 C, D,=E, | F,E, D,2 D,2 | G,3 B, A,G, | A,G, C,2 !fermata!F,2 |] %32

